X:1
T:Awake, my heart; arise, my tongue
T:Awake, my heart; arise, my tongue - Hollingbourn (Thomas Clark)
C:Thomas Clark
Z:p26, A Fifth Set of
Z:Psalm and Hymn Tunes,
Z:London: [c1809]
%%score [ 1 2 3 4 ]
L:1/8
M:2/2
K:D
V:1 treble nm="SOPRANO" snm="S."
V:2 treble nm="ALTO" snm="A."
V:3 treble-8 transpose=-12 nm="TENOR" snm="T."
V:4 bass nm="BASS" snm="B."
V:1
 A2 | d2 A2 F2 A2 | d2 e2 f2 d2 | A2 B2 A2 G2 | F2 ^G2 A2 B2 | A4 ^G4 | A4 z2 A2 | B2 A2 B2 c2 | %8
w: And|lest the sha- dow|of a spot Should|on my soul be|found, should on my|soul be|found, He|took the robe the|
w: A-|wake, my heart; a-|rise, my tongue, Pre-|pare a tune- ful|voice, pre- pare a|tune- ful|voice: In|God, the life of|
w: ’Tis|he a- dorn’d my|na- ked soul, And|made sal- va- tion|mine, and made sal-|va- tion|mine; Up-|on a poor pol-|
 d2 c2 d2 e2 | f2 f2 f2 f2 | (e4- efed | c4- cdcB | A4) z2 A2 | d4 f4 | e4 c4 | d8 |] %16
w: Sa- viour wrought, And|cast it all a-|round, _ _ _ _|_ _ _ _ _|* and|cast it|all a-|round.|
w: all my joys, A-|loud will I re-|joice, _ _ _ _|_ _ _ _ _|* a-|loud will|I re-|joice.|
w: lu- ted worm He|makes his gra- ces|shine, _ _ _ _|_ _ _ _ _|* he|makes his|gra- ces|shine.|
V:2
 F2 | A2 F2 D2 F2 | A2 A2 A2 F2 | D2 D2 D2 C2 | D2 D2 E2 F2 | E4 E4 | E4 z2 F2 | G2 A2 G2 G2 | %8
w: And|lest the sha- dow|of a spot Should|on my soul be|found, should on my|soul be|found, He|took the robe the|
w: A-|wake, my heart; a-|rise, my tongue, Pre-|pare a tune- ful|voice, pre- pare a|tune- ful|voice: In|God, the life of|
w: ’Tis|he a- dorn’d my|na- ked soul, And|made sal- va- tion|mine, and made sal-|va- tion|mine; Up-|on a poor pol-|
 F2 G2 F2 A2 | A2 A2 A2 A2 | (A4 ^G4 | A4) z2 E2 | A2 A2 (AB)(AG) | F2 A2 A2 A2 | G4 E4 | F8 |] %16
w: Sa- viour wrought, And|cast it all a-|round, _|_ and|cast it all _ a- *|round, and cast it|all a-|round.|
w: all my joys, A-|loud will I re-|joice, _|_ a-|loud will I _ re- *|joice, a- loud will|I re-|joice.|
w: lu- ted worm He|makes his gra- ces|shine, _|_ he|makes his gra- * ces _|shine, he makes his|gra- ces|shine.|
V:3
 d2 | f2 d2 A2 d2 | d2 c2 d2 A2 | A2 E2 A2 A2 | A2 B2 A2 d2 | c4 B4 | c4 z2 d2 | d2 d2 d2 A2 | %8
w: And|lest the sha- dow|of a spot Should|on my soul be|found, should on my|soul be|found, He|took the robe the|
w: A-|wake, my heart; a-|rise, my tongue, Pre-|pare a tune- ful|voice, pre- pare a|tune- ful|voice: In|God, the life of|
w: ’Tis|he a- dorn’d my|na- ked soul, And|made sal- va- tion|mine, and made sal-|va- tion|mine; Up-|on a poor pol-|
 d2 e2 d2 A2 | d2 d2 d2 d2 | (c4 B4 | c2) e2 e2 c2 | d2 d2 d4 | z2 A2 d2 d2 | B4 A4 | A8 |] %16
w: Sa- viour wrought, And|cast it all a-|round, _|_ and cast it|all a- round,|and cast it|all a-|round.|
w: all my joys, A-|loud will I re-|joice, _|_ a- loud will|I re- joice,|a- loud will|I re-|joice.|
w: lu- ted worm He|makes his gra- ces|shine, _|_ he makes his|gra- ces shine,|he makes his|gra- ces|shine.|
V:4
 D,2 | D,2 D,2 D,2 D,2 |"^6" F,2 A,2 D2 D,2 |"^6" F,2"^65" G,2"^6" F,2"^43" E,2 | %4
w: And|lest the sha- dow|of a spot Should|on my soul be|
w: A-|wake, my heart; a-|rise, my tongue, Pre-|pare a tune- ful|
w: ’Tis|he a- dorn’d my|na- ked soul, And|made sal- va- tion|
 D,2"^´" B,,2"^6" C,2"^6" D,2 |"^64" E,4"^5#" E,4 | A,,4 z2 D,2 | G,2"^6" F,2 G,2"^7" A,2 | %8
w: found, should on my|soul be|found, He|took the robe the|
w: voice, pre- pare a|tune- ful|voice: In|God, the life of|
w: mine, and made sal-|va- tion|mine; Up-|on a poor pol-|
 B,2"^7" A,2 B,2"^6" C2 | D2"^64" A,2"^6" F,2 D,2 | A,4 z2"^#" E,2 | %11
w: Sa- viour wrought, And|cast it all a-|round, and|
w: all my joys, A-|loud will I re-|joice, a-|
w: lu- ted worm He|makes his gra- ces|shine, he|
"^Notes:The order of staves in the source is Tenor - [Alto] - Air - [Bass], with the alto part printed in the treble clef an octave abovesounding pitch.Only the first verse of text is given in the source: subsequent verses have here been added editorially." A,2 A,2 (A,B,)(A,G,) | %12
w: cast it all _ a- *|
w: loud will I _ re- *|
w: makes his gra- * ces _|
"^The Spirit wrought my faith and love,And hope, and ev’ry grace;But Jesus spent his life, to workThe robe of righteousness.Strangely, my soul, art thou array’dBy the great sacred three:In sweetest harmony of praiseLet all thy pow’rs agree.""^6" (F,4- F,G,F,E, | %13
w: round, _ _ _ _|
w: joice, _ _ _ _|
w: shine, _ _ _ _|
 D,2)"^6" F,2"^-" A,2"^6" F,2 |"^6" G,4 A,4 | D,8 |] %16
w: _ and cast it|all a-|round.|
w: _ a- loud will|I re-|joice.|
w: _ he makes his|gra- ces|shine.|

